packages/foundations/assets/icons/functional/images/communication/speech_bubble_exclamation_mark_14_filled.svg

<svg width="14" height="14" viewBox="0 0 14 14" fill="none" xmlns="http://www.w3.org/2000/svg">
<g clip-path="url(#clip0_2204_2314)">
<path fill-rule="evenodd" clip-rule="evenodd" d="M10.8981 1.40002C11.8588 1.40002 12.6 2.19221 12.6 3.14832V8.74832C12.6 9.70443 11.8177 10.4966 10.8432 10.4966H4.63924C4.54317 10.4966 4.46081 10.5376 4.39222 10.6058L2.59419 12.3951C2.45695 12.5318 2.27845 12.6 2.1138 12.6C1.75695 12.6 1.40002 12.3132 1.40002 11.8898V3.14832C1.40002 2.19221 2.23734 1.40002 3.21183 1.40002H10.8981ZM7.00373 7.00002C6.58922 7.00002 6.23002 7.34236 6.23002 7.78062C6.23002 8.21888 6.58922 8.57502 7.00373 8.57502C7.44583 8.57502 7.80502 8.21888 7.80502 7.78062C7.80502 7.34236 7.44583 7.00002 7.00373 7.00002ZM7.70002 2.80002H6.30002V6.29662H7.70002V2.80002Z" fill="#1A1C1F"/>
</g>
<defs>
<clipPath id="clip0_2204_2314">
<rect width="14" height="14" fill="white"/>
</clipPath>
</defs>
</svg>

<svg xmlns="http://www.w3.org/2000/svg" width="14" height="14" fill="none"><g clip-path="url(#a)"><path fill="#1A1C1F" fill-rule="evenodd" d="M10.898 1.4c.96 0 1.702.792 1.702 1.748v5.6c0 .956-.782 1.749-1.757 1.749H4.64a.35.35 0 0 0-.247.109l-1.798 1.79a.7.7 0 0 1-.48.204.715.715 0 0 1-.714-.71V3.148c0-.956.837-1.748 1.812-1.748zM7.004 7a.78.78 0 0 0-.774.78c0 .439.36.795.774.795a.8.8 0 0 0 .801-.794c0-.439-.36-.781-.801-.781M7.7 2.8H6.3v3.497h1.4z" clip-rule="evenodd"/></g><defs><clipPath id="a"><path fill="#fff" d="M0 0h14v14H0z"/></clipPath></defs></svg>
